ALTDEU
CUT[Der Bremberger]
REG[Europa, Mitteleuropa, Deutschland]
KEY[A0023B 16  G 6/8]
MEL[5_  3b__2_1__-7b_  1__2_3b__
    5_  3b__2_1__-7b_  1__2_3b__
    3b4  5__5_5_6b_5_  5__.4__
    23b  4__4_4_5_4_  4__.3b__
    3b2  1__543b_.423b  1__.0__ //] >>
FCT[Romanze, Ballade, Lied]
CMT[Neuere Melodie, noch 1850 am Niederrhein gehoert.]
